18x18/actions/draw-ellipse-arc.svg

<svg xmlns="http://www.w3.org/2000/svg" width="18" height="18"><defs><style id="current-color-scheme" type="text/css">.ColorScheme-Text{color:#444}</style></defs><path style="fill:currentColor;opacity:.3" class="ColorScheme-Text" d="M15 8a7 7 0 0 1-4.606 6.578A7 7 0 0 1 2.638 12.5a7 7 0 0 1-.7-8" transform="translate(1 1)"/><path style="fill:currentColor" class="ColorScheme-Text" d="M1.947 4.502A7 7 0 0 0 1 8a7 7 0 0 0 7 7 7 7 0 0 0 7-7l-2.035-.545A5 5 0 0 1 13 8a5 5 0 0 1-5 5 5 5 0 0 1-5-5 5 5 0 0 1 .975-2.955l-2.028-.543z" transform="translate(1 1)"/></svg>

<svg xmlns="http://www.w3.org/2000/svg" width="18" height="18" version="1.1">
 <defs>
  <style id="current-color-scheme" type="text/css">
   .ColorScheme-Text { color:#444444; } .ColorScheme-Highlight { color:#4285f4; } .ColorScheme-NeutralText { color:#ff9800; } .ColorScheme-PositiveText { color:#4caf50; } .ColorScheme-NegativeText { color:#f44336; }
  </style>
 </defs>
 <g transform="translate(1,1)">
  <path style="fill:currentColor;opacity:0.3" class="ColorScheme-Text" d="M 15,8 A 7,7 0 0 1 10.394,14.578 7,7 0 0 1 2.6377,12.5 7,7 0 0 1 1.9379,4.5"/>
  <path style="fill:currentColor" class="ColorScheme-Text" d="M 1.9473 4.502 A 7 7 0 0 0 1 8 A 7 7 0 0 0 8 15 A 7 7 0 0 0 15 8 L 12.965 7.4551 A 5 5 0 0 1 13 8 A 5 5 0 0 1 8 13 A 5 5 0 0 1 3 8 A 5 5 0 0 1 3.9746 5.0449 L 1.9473 4.502 z"/>
 </g>
</svg>
